svg/video-camera.svg

<svg xmlns="http://www.w3.org/2000/svg" viewBox="0 0 65 36" enable-background="new 0 0 65 36"><style type="text/css">.st0{fill:#343434;}</style><title>video-camera</title><desc>Created with Sketch.</desc><path class="st0" d="M64 .9l-13 6.6v-4.5c0-1.1-.9-2-2-2h-47c-1.1 0-2 .9-2 2v30c0 1.1.9 2 2 2h47c1.1 0 2-.9 2-2v-4.4l13 6.6v-34.3zm-17 30.1h-43v-26h43v26zm13-2.3l-9-4.5v-12.3l9-4.5v21.3z"/></svg>

<svg xmlns="http://www.w3.org/2000/svg" viewBox="0 0 65 36"><path d="M64 .9L51 7.5V3c0-1.1-.9-2-2-2H2C.9 1 0 1.9 0 3v30c0 1.1.9 2 2 2h47c1.1 0 2-.9 2-2v-4.4l13 6.6V.9zM47 31H4V5h43v26zm13-2.3l-9-4.5V11.9l9-4.5v21.3z" fill="#343434"/></svg>
